X:197
T: QUANDO CONVENIUNT CATHARINA
N: F0342
O: Europa, Mitteleuropa, Deutschland
R: Jugend - Lied, Geselligkeit, Scherz, Kanon
M: 4/4
L: 1/8
K: G
 | d4d2c2 | B2AGF2F2 |
G2ABA2DD | G2G2z4 |
d4d2c2 | B2AGF2F2 |
G2ABA2DD | G2G2z4

@@@ Tune index: 5628
